X: 21
T:VALSE DES LAMBERT
M:3/4
L:1/8
Q:190
C:trad. Bresse/Jura
R:valse
K:C
G2c2d2|e6|c2e2f2|g6|e2f2g2|a4g2|f2e2d2|1 e4c2:|2 c6|:g2f2g2|e6|e2d2e2|c4
G2|c2B2c2|d2e2f2|1a2gf ef| g6:|2a2gf ed|c6||
